src/Icon/svgs/GooglePlus.svg

<svg xmlns="http://www.w3.org/2000/svg" width="24" height="24"  xmlns:v="https://vecta.io/nano"><path fill="#1b1c1d" fill-rule="evenodd" d="M8 11h6.61a6.44 6.44 0 0 1 .11 1.16c0 4-2.68 6.84-6.72 6.84-3.87 0-7-3.13-7-7s3.13-7 7-7c1.89 0 3.47.69 4.69 1.83l-1.9 1.83c-.52-.5-1.43-1.08-2.79-1.08-2.39 0-4.34 1.98-4.34 4.42S5.61 16.42 8 16.42c2.77 0 3.81-1.99 3.97-3.02H8V11zm15 0v2h-2v2h-2v-2h-2v-2h2V9h2v2h2z"/></svg>

<svg xmlns="http://www.w3.org/2000/svg" width="24" height="24" viewBox="0 0 24 24">
  <path fill="#1B1C1D" fill-rule="evenodd" d="M8,11 L14.61,11 C14.67,11.35 14.72,11.7 14.72,12.16 C14.72,16.16 12.04,19 8,19 C4.13,19 1,15.87 1,12 C1,8.13 4.13,5 8,5 C9.89,5 11.47,5.69 12.69,6.83 L10.79,8.66 C10.27,8.16 9.36,7.58 8,7.58 C5.61,7.58 3.66,9.56 3.66,12 C3.66,14.44 5.61,16.42 8,16.42 C10.77,16.42 11.81,14.43 11.97,13.4 L8,13.4 L8,11 Z M23,11 L23,13 L21,13 L21,15 L19,15 L19,13 L17,13 L17,11 L19,11 L19,9 L21,9 L21,11 L23,11 Z"/>
</svg>
